X:38
T:Forest where the Deer resort, The
T:Sud an gleann 'sam be na feidh
R:Strathspey
S:Simon Fraser Collection
N:No.25
N:transposed from Dmin
O:Scottish
M:C
L:1/8
Q:1/4=140
K:Emin
d|:B<e e>g d>gB>b|g>d B<G A/A/A B2|1 B<e e>g d>gB>e|
c>A A/A/A G>E E2:|2 b>ag>e d>cB>e|c>A A/A/A GE E2||
|:E>AA>c d>c B<d|c<AA>c d>B Gc d>c B<e|
c>A A/A/A G>E E2:|2 B<e e/e/e d>B B/B/B|c>A A/A/A G>E E2|]
